assets/timeline_pendidikan/1.svg

<svg width="1920" height="1080" viewBox="0 0 1920 1080" fill="none" xmlns="http://www.w3.org/2000/svg">
<mask id="mask0" mask-type="alpha" maskUnits="userSpaceOnUse" x="0" y="0" width="1920" height="1080">
<rect width="1920" height="1080" fill="#C4C4C4"/>
</mask>
<g mask="url(#mask0)">
<rect width="1920" height="950" fill="url(#paint0_radial)"/>
<path d="M34.251 -12.7148C34.4019 -13.0386 34.7142 -13.2573 35.0701 -13.2884L122.083 -20.901C122.439 -20.9322 122.784 -20.7711 122.989 -20.4784L173.089 51.0707C173.293 51.3633 173.327 51.7431 173.176 52.0668L136.262 131.229C136.111 131.552 135.799 131.771 135.443 131.802L48.4299 139.415C48.074 139.446 47.7285 139.285 47.5236 138.992L-2.57561 67.4431C-2.78053 67.1504 -2.81375 66.7707 -2.66276 66.4469L34.251 -12.7148Z" fill="white" fill-opacity="0.02"/>
<path d="M1598.25 -50.7148C1598.4 -51.0386 1598.71 -51.2573 1599.07 -51.2884L1686.08 -58.901C1686.44 -58.9322 1686.78 -58.7711 1686.99 -58.4784L1737.09 13.0707C1737.29 13.3633 1737.33 13.7431 1737.18 14.0668L1700.26 93.2286C1700.11 93.5524 1699.8 93.771 1699.44 93.8021L1612.43 101.415C1612.07 101.446 1611.73 101.285 1611.52 100.992L1561.42 29.4431C1561.22 29.1504 1561.19 28.7707 1561.34 28.4469L1598.25 -50.7148Z" fill="white" fill-opacity="0.02"/>
<path d="M247.887 136.757C248.038 136.434 248.35 136.215 248.706 136.184L314.664 130.413C315.02 130.382 315.366 130.543 315.571 130.836L353.547 185.072C353.752 185.365 353.785 185.744 353.634 186.068L325.653 246.075C325.502 246.399 325.19 246.617 324.834 246.648L258.876 252.419C258.52 252.45 258.174 252.289 257.969 251.996L219.993 197.76C219.788 197.468 219.755 197.088 219.906 196.764L247.887 136.757Z" fill="white" fill-opacity="0.02"/>
<path d="M746.946 63.3517C747.281 63.4754 747.525 63.7685 747.586 64.1206L756.275 114.725C756.336 115.077 756.204 115.435 755.929 115.663L716.449 148.491C716.174 148.72 715.798 148.784 715.463 148.66L667.293 130.883C666.958 130.76 666.715 130.467 666.654 130.114L657.965 79.5098C657.904 79.1577 658.036 78.8001 658.311 78.5717L697.791 45.744C698.066 45.5156 698.441 45.4511 698.776 45.5747L746.946 63.3517Z" fill="white" fill-opacity="0.02"/>
<path d="M1328.76 -18.3629C1328.91 -18.6867 1329.22 -18.9054 1329.58 -18.9365L1380.73 -23.4116C1381.09 -23.4427 1381.43 -23.2816 1381.64 -22.9889L1411.09 19.0707C1411.29 19.3633 1411.33 19.7431 1411.17 20.0669L1389.48 66.6015C1389.32 66.9253 1389.01 67.1439 1388.66 67.1751L1337.51 71.6501C1337.15 71.6813 1336.8 71.5202 1336.6 71.2275L1307.15 29.1679C1306.94 28.8752 1306.91 28.4955 1307.06 28.1717L1328.76 -18.3629Z" fill="white" fill-opacity="0.02"/>
<path d="M1854.76 127.637C1854.91 127.313 1855.22 127.095 1855.58 127.063L1906.73 122.588C1907.09 122.557 1907.43 122.718 1907.64 123.011L1937.09 165.071C1937.29 165.363 1937.33 165.743 1937.17 166.067L1915.48 212.602C1915.32 212.925 1915.01 213.144 1914.66 213.175L1863.51 217.65C1863.15 217.681 1862.8 217.52 1862.6 217.228L1833.15 175.168C1832.94 174.875 1832.91 174.495 1833.06 174.172L1854.76 127.637Z" fill="white" fill-opacity="0.02"/>
<path d="M494.483 -20.6626C494.634 -20.9864 494.946 -21.205 495.302 -21.2361L530.303 -24.2983C530.659 -24.3295 531.004 -24.1684 531.209 -23.8757L551.361 4.90493C551.566 5.19758 551.6 5.57733 551.449 5.90112L536.6 37.744C536.449 38.0677 536.137 38.2864 535.781 38.3175L500.78 41.3797C500.424 41.4109 500.078 41.2498 499.874 40.9571L479.721 12.1765C479.516 11.8838 479.483 11.5041 479.634 11.1803L494.483 -20.6626Z" fill="white" fill-opacity="0.02"/>
<path d="M1397.5 88.2887C1397.81 88.11 1398.19 88.11 1398.5 88.2887L1403.56 91.2113C1403.87 91.39 1404.06 91.7201 1404.06 92.0774V97.9227C1404.06 98.2799 1403.87 98.61 1403.56 98.7887L1398.5 101.711C1398.19 101.89 1397.81 101.89 1397.5 101.711L1392.44 98.7887C1392.13 98.61 1391.94 98.2799 1391.94 97.9226V92.0774C1391.94 91.7201 1392.13 91.39 1392.44 91.2113L1397.5 88.2887Z" fill="white" fill-opacity="0.19"/>
<path d="M283.5 237.289C283.809 237.11 284.191 237.11 284.5 237.289L289.562 240.211C289.872 240.39 290.062 240.72 290.062 241.077V246.923C290.062 247.28 289.872 247.61 289.562 247.789L284.5 250.711C284.191 250.89 283.809 250.89 283.5 250.711L278.438 247.789C278.128 247.61 277.938 247.28 277.938 246.923V241.077C277.938 240.72 278.128 240.39 278.438 240.211L283.5 237.289Z" fill="white" fill-opacity="0.19"/>
<path d="M869.5 194.289C869.809 194.11 870.191 194.11 870.5 194.289L875.562 197.211C875.872 197.39 876.062 197.72 876.062 198.077V203.923C876.062 204.28 875.872 204.61 875.562 204.789L870.5 207.711C870.191 207.89 869.809 207.89 869.5 207.711L864.438 204.789C864.128 204.61 863.938 204.28 863.938 203.923V198.077C863.938 197.72 864.128 197.39 864.438 197.211L869.5 194.289Z" fill="white" fill-opacity="0.19"/>
<path d="M1640.5 201.289C1640.81 201.11 1641.19 201.11 1641.5 201.289L1646.56 204.211C1646.87 204.39 1647.06 204.72 1647.06 205.077V210.923C1647.06 211.28 1646.87 211.61 1646.56 211.789L1641.5 214.711C1641.19 214.89 1640.81 214.89 1640.5 214.711L1635.44 211.789C1635.13 211.61 1634.94 211.28 1634.94 210.923V205.077C1634.94 204.72 1635.13 204.39 1635.44 204.211L1640.5 201.289Z" fill="white" fill-opacity="0.19"/>
<path d="M644 102L645.909 109.091L653 111L645.909 112.909L644 120L642.091 112.909L635 111L642.091 109.091L644 102Z" fill="white" fill-opacity="0.17"/>
<path d="M1610 41L1611.91 48.0908L1619 50L1611.91 51.9092L1610 59L1608.09 51.9092L1601 50L1608.09 48.0908L1610 41Z" fill="white" fill-opacity="0.17"/>
<path d="M78 84L81.182 95.818L93 99L81.182 102.182L78 114L74.818 102.182L63 99L74.818 95.818L78 84Z" fill="white" fill-opacity="0.17"/>
<path d="M1356 324L1359.18 335.818L1371 339L1359.18 342.182L1356 354L1352.82 342.182L1341 339L1352.82 335.818L1356 324Z" fill="white" fill-opacity="0.17"/>
<path d="M1829 114L1832.18 125.818L1844 129L1832.18 132.182L1829 144L1825.82 132.182L1814 129L1825.82 125.818L1829 114Z" fill="white" fill-opacity="0.17"/>
<path d="M965 39L967.121 46.8787L975 49L967.121 51.1213L965 59L962.879 51.1213L955 49L962.879 46.8787L965 39Z" fill="white" fill-opacity="0.17"/>
<path d="M975.5 129L976.667 133.333L981 134.5L976.667 135.667L975.5 140L974.333 135.667L970 134.5L974.333 133.333L975.5 129Z" fill="white" fill-opacity="0.17"/>
<path d="M672.5 238L673.242 240.758L676 241.5L673.242 242.242L672.5 245L671.758 242.242L669 241.5L671.758 240.758L672.5 238Z" fill="white" fill-opacity="0.17"/>
<path d="M466.5 114L467.242 116.758L470 117.5L467.242 118.242L466.5 121L465.758 118.242L463 117.5L465.758 116.758L466.5 114Z" fill="white" fill-opacity="0.17"/>
<path d="M544.5 192L545.667 196.727L550 198L545.667 199.273L544.5 204L543.333 199.273L539 198L543.333 196.727L544.5 192Z" fill="white" fill-opacity="0.17"/>
<path d="M538.5 59L539.242 61.7575L542 62.5L539.242 63.2425L538.5 66L537.758 63.2425L535 62.5L537.758 61.7575L538.5 59Z" fill="white" fill-opacity="0.17"/>
<path d="M369 59L370.273 64.1211L375 65.5L370.273 66.8789L369 72L367.727 66.8789L363 65.5L367.727 64.1211L369 59Z" fill="white" fill-opacity="0.17"/>
<path d="M384.5 163L385.242 165.758L388 166.5L385.242 167.242L384.5 170L383.758 167.242L381 166.5L383.758 165.758L384.5 163Z" fill="white" fill-opacity="0.17"/>
<path d="M1312.5 332L1313.24 334.758L1316 335.5L1313.24 336.242L1312.5 339L1311.76 336.242L1309 335.5L1311.76 334.758L1312.5 332Z" fill="white" fill-opacity="0.17"/>
</g>
<defs>
<radialGradient id="paint0_radial" cx="0" cy="0" r="1" gradientUnits="userSpaceOnUse" gradientTransform="translate(960 -1014.59) rotate(90) scale(1964.59 3970.55)">
<stop offset="0.332553" stop-color="#2D325A"/>
<stop offset="0.411507" stop-color="#2F345C"/>
<stop offset="0.521197" stop-color="#32375F"/>
<stop offset="0.587832" stop-color="#3A4572"/>
<stop offset="0.663009" stop-color="#6E4F6E"/>
<stop offset="0.736477" stop-color="#90566F"/>
<stop offset="0.791612" stop-color="#AA5C6A"/>
<stop offset="0.845441" stop-color="#BD625E"/>
<stop offset="0.905482" stop-color="#D86B4A"/>
<stop offset="1" stop-color="#E6713B"/>
</radialGradient>
</defs>
</svg>

<svg xmlns="http://www.w3.org/2000/svg" xmlns:xlink="http://www.w3.org/1999/xlink" width="1920" height="1080" fill="none" xmlns:v="https://vecta.io/nano"><mask id="A" mask-type="alpha" maskUnits="userSpaceOnUse" x="0" y="0" width="1920" height="1080"><path fill="#c4c4c4" d="M0 0h1920v1080H0z"/></mask><g mask="url(#A)"><path fill="url(#B)" d="M0 0h1920v950H0z"/><path d="M34.251-12.715a1 1 0 0 1 .819-.574l87.013-7.613a1 1 0 0 1 .906.423l50.1 71.549a1 1 0 0 1 .087.996l-36.914 79.162a1 1 0 0 1-.819.573l-87.013 7.613a1 1 0 0 1-.906-.423l-50.1-71.548a1 1 0 0 1-.087-.996l36.914-79.162zm1563.999-38c.15-.324.46-.543.82-.574l87.01-7.613c.36-.031.7.13.91.423l50.1 71.549c.2.293.24.672.09.996l-36.92 79.162c-.15.324-.46.542-.82.573l-87.01 7.613c-.36.031-.7-.13-.91-.423l-50.1-71.549c-.2-.293-.23-.672-.08-.996l36.91-79.162zM247.887 136.757a1 1 0 0 1 .819-.573l65.958-5.771a1 1 0 0 1 .907.423l37.976 54.236a1 1 0 0 1 .087.996l-27.981 60.007a1 1 0 0 1-.819.573l-65.958 5.771a1 1 0 0 1-.907-.423l-37.976-54.236a1 1 0 0 1-.087-.996l27.981-60.007zm499.059-73.405a1 1 0 0 1 .64.769l8.689 50.604c.061.352-.071.71-.346.938l-39.48 32.828a1 1 0 0 1-.986.169l-48.17-17.777a1 1 0 0 1-.639-.769l-8.689-50.604a1 1 0 0 1 .346-.938l39.48-32.828a1 1 0 0 1 .985-.169l48.17 17.777zm581.814-81.715c.15-.324.46-.543.82-.574l51.15-4.475c.36-.031.7.13.91.423l29.45 42.06a.99.99 0 0 1 .08.996l-21.69 46.535c-.16.324-.47.542-.82.574l-51.15 4.475c-.36.031-.71-.13-.91-.423l-29.45-42.06a.99.99 0 0 1-.09-.996l21.7-46.535zm526 146c.15-.324.46-.542.82-.574l51.15-4.475c.36-.031.7.13.91.423l29.45 42.06a.99.99 0 0 1 .08.996l-21.69 46.535c-.16.323-.47.542-.82.573l-51.15 4.475a1 1 0 0 1-.91-.422l-29.45-42.06a.99.99 0 0 1-.09-.996l21.7-46.535zM494.483-20.663a1 1 0 0 1 .819-.573l35.001-3.062a1 1 0 0 1 .906.423l20.152 28.781a1 1 0 0 1 .088.996L536.6 37.744a1 1 0 0 1-.819.574L500.78 41.38a1 1 0 0 1-.906-.423l-20.153-28.781a1 1 0 0 1-.087-.996l14.849-31.843z" fill="#fff" fill-opacity=".02"/><path d="M1397.5 88.289a1 1 0 0 1 1 0l5.06 2.923a1 1 0 0 1 .5.866v5.845a1 1 0 0 1-.5.866l-5.06 2.922a1 1 0 0 1-1 0l-5.06-2.922a1 1 0 0 1-.5-.866v-5.845a1 1 0 0 1 .5-.866l5.06-2.923z" fill="#fff" fill-opacity=".19"/><use xlink:href="#C" fill="#fff" fill-opacity=".19"/><use xlink:href="#C" x="586" y="-43" fill="#fff" fill-opacity=".19"/><path d="M1640.5 201.289a1 1 0 0 1 1 0l5.06 2.922a1 1 0 0 1 .5.866v5.846a1 1 0 0 1-.5.866l-5.06 2.922a1 1 0 0 1-1 0l-5.06-2.922a1 1 0 0 1-.5-.866v-5.846a1 1 0 0 1 .5-.866l5.06-2.922z" fill="#fff" fill-opacity=".19"/><path d="M644 102l1.909 7.091L653 111l-7.091 1.909L644 120l-1.909-7.091L635 111l7.091-1.909L644 102zm966-61l1.91 7.091L1619 50l-7.09 1.909L1610 59l-1.91-7.091L1601 50l7.09-1.909L1610 41zM78 84l3.182 11.818L93 99l-11.818 3.182L78 114l-3.182-11.818L63 99l11.818-3.182L78 84zm1278 240l3.18 11.818L1371 339l-11.82 3.182L1356 354l-3.18-11.818L1341 339l11.82-3.182L1356 324zm473-210l3.18 11.818L1844 129l-11.82 3.182L1829 144l-3.18-11.818L1814 129l11.82-3.182L1829 114zM965 39l2.121 7.879L975 49l-7.879 2.121L965 59l-2.121-7.879L955 49l7.879-2.121L965 39zm10.5 90l1.167 4.333L981 134.5l-4.333 1.167L975.5 140l-1.167-4.333L970 134.5l4.333-1.167L975.5 129zm-303 109l.742 2.758 2.758.742-2.758.742L672.5 245l-.742-2.758L669 241.5l2.758-.742.742-2.758zm-206-124l.742 2.758 2.758.742-2.758.742L466.5 121l-.742-2.758L463 117.5l2.758-.742.742-2.758zm78 78l1.167 4.727L550 198l-4.333 1.273L544.5 204l-1.167-4.727L539 198l4.333-1.273L544.5 192zm-6-133l.742 2.758L542 62.5l-2.758.742L538.5 66l-.742-2.758L535 62.5l2.758-.742L538.5 59zM369 59l1.273 5.121L375 65.5l-4.727 1.379L369 72l-1.273-5.121L363 65.5l4.727-1.379L369 59zm15.5 104l.742 2.758 2.758.742-2.758.742L384.5 170l-.742-2.758L381 166.5l2.758-.742.742-2.758zm928 169l.74 2.758 2.76.742-2.76.742-.74 2.758-.74-2.758-2.76-.742 2.76-.742.74-2.758z" fill="#fff" fill-opacity=".17"/></g><defs><radialGradient id="B" cx="0" cy="0" r="1" gradientUnits="userSpaceOnUse" gradientTransform="translate(960 -1014.59) rotate(90) scale(1964.59 3970.55)"><stop offset=".333" stop-color="#2d325a"/><stop offset=".412" stop-color="#2f345c"/><stop offset=".521" stop-color="#32375f"/><stop offset=".588" stop-color="#3a4572"/><stop offset=".663" stop-color="#6e4f6e"/><stop offset=".736" stop-color="#90566f"/><stop offset=".792" stop-color="#aa5c6a"/><stop offset=".845" stop-color="#bd625e"/><stop offset=".905" stop-color="#d86b4a"/><stop offset="1" stop-color="#e6713b"/></radialGradient><path id="C" d="M283.5 237.289a1 1 0 0 1 1 0l5.062 2.922a1 1 0 0 1 .5.866v5.846a1 1 0 0 1-.5.866l-5.062 2.922a1 1 0 0 1-1 0l-5.062-2.922a1 1 0 0 1-.5-.866v-5.846a1 1 0 0 1 .5-.866l5.062-2.922z"/></defs></svg>
